X: 1
T: les Patins Blancs
C: Ph. Prieur
R: waltz
Z: 2006 John Chambers <jc:trillian.mit.edu>
M: 3/4
L: 1/4
K: Dmix=c
|: "D"dAF  | dAF | "C"cGE | cGE  | "G"B>AG | "(Em)"BAG | "D(Am)"A3 | "D"AGF :|
[| "G"G>AB | BcB | "D"F3  | F>ED | "Em"EGB |       BAG | "D(Am)"A3 | "D"AGF  |
|  "G"G>AB | BcB | "D"F3  | F>ED | "Em"E3  |       G3  | "D"    A3 | "C"c3  |]
